X:834020
T: Flower of the Forest
H:
C: 
B: https://thesession.org/tunes/2834
O:Kevin Fraser
Z:Kevin Fraser
Q:3/8=60
M:6/8
L:1/8
R:Lament
U: R = ///
U: r = //
U: V = !accent!
K:HP
V:M gstem=up stem=down name="Melody"
V:H gstem=up stem=down name="Harmony"
V:C gstem=up stem=down name="C-Harmony"
V:S gstem=up stem=down dyn=up stafflines=1 clef=perc middle=G name="Snare" sname="Snare"
V:B gstem=up stem=down clef=none dyn=up name="Bass"
V:T gstem=up stem=down clef=none dyn=up name="Tenor"
V:BB gstem=up stem=down name="Brass Bass" sname="ABCD-C" transpose=-1  octave=-1 clef=bass
V:BC gstem=up stem=down name="Brass Chord" sname="ABCD-D" transpose=-1
V:BD gstem=up stem=down name="Brass Chord 2" sname="ABCD-B" transpose=-1
V:P gstem=up stem=down name="Piano" octave=-1
%%MIDI gracedivider 4
%%MIDI gchord
%%MIDI beatstring 
% %alignbars 80
%%score {M}
%%MIDI program 109 #bagpipes
%%MIDI vol 100
[V:M]e|:{g}A3 {GAG}A2B|{G}A2{g}B/>c/ {Gdc}d2 (3{g}e/f/g/|{gfg}f3 {g}e2d|{g}B/d/-d2 {gBd}B2{g}A/<{e}G/| $
[V:M]{g}A3 {GAG}A2B|{G}A2{g}B/>c/ {Gdc}d2 (3{g}e/f/g/|{gfg}f3 {g}e2f| {Gdc}d3 {gdc}d3:| $
[V:M]|:{g}c3 {g}c/e3/2{g}d/>c/ |{gBd}B2A {g}B/d/{gdc}d2|{g}A/f/-f2 {gef}e2d|{g}B/d/-d2 {gBd}B2{g}A/<{e}G/| $
[V:M]{g}c3 {g}c/e3/2{g}d/>c/|{gBd}B2A {g}B/d/{gdc}d2|{g}A/f/-f2 {gef}e2c| {Gdc}d3 {gdc}d3:| $
[V:M]e|{g}f/a/-a2 {g}a3|{GdG}a2g {a}f/a>g|{fg}f3 {g}e2d|{g}B/d/-d2 {gBd}B2{g}A/<{e}G/| $
[V:M][1 {g}f/a/-a2 {g}a3|{GdG}a2g {a}f/a>g|{fg}f3 {g}e2c|{Gdc}d3 {gdc}d3:|
[V:M][2 {g}A3 {GAG}A2B|{G}A2{g}B/>c/ {Gdc}d2 (3{g}e/f/g/|{gfg}f3 {g}e2f| {Gdc}d3 {gdc}d3||


